X:4446
L:1/8
Q:1/2=100
M:4/4
K:G
 g4 | d3 e d2 c2 | B4 B2 d2 | d3 d d ^c3 | d6 || A2 | B3 B B2 A3/2 G/ | A3 A A3 F | 
 (BA) (GF) F2 E2 | D4 z2 || d2 | c2 d2 c2 B2 | A3{c} B2 A2 d2 | c2 d2 B c3 | (B4 A4) || z4 A3 A | 
 B4 c3 d | e4 c3 B | A4 B3 c | d4 d3 c | B4 c3 B | (!fermata!d4{c^cd} A4) | (!fermata!d4 e3) || c | 
 B2 B2 B2 B2 | (A>GA>B) A2 AB | c2 c2 c2 c2 | (B>AB>c) B2 cd | e2 e2 e2 e2 | (d>^cd>e) d2 =cB | 
 (ed) (cB) B2 A2 | G4 |]

